X: 3
T: The Silver Spire
R: reel
M: 4/4
L: 1/8
K: Dmaj
|:D2~D2 FA~A2|dcde fdAF|G2BG FADF|~E3F E2FE|
D2~D2 FA~A2|dcde fdAF|GABG FADF|~E3F D3z:|
|:AD~D2 EFGE|FDEF GABc|dcBA Bcde|fdgf e3A|
defd ceAc|dcdB AFDF|GABG FADF|~E3F D3z:|


Tune 240	Setting 29993

